CSETWebApi/CSETWeb_Api/CSETWeb_ApiCore/Diagram/src/main/webapp/img/lib/mscae/IOT_edge.svg

<svg xmlns="http://www.w3.org/2000/svg" width="48" height="49.9"><path d="M46.677 34.9H1.323C.592 34.9 0 35.492 0 36.223v12.354c0 .73.592 1.323 1.323 1.323h45.354c.73 0 1.323-.592 1.323-1.323V36.223c0-.728-.595-1.323-1.323-1.323z" fill="#7a7a7a"/><path d="M41 37.9h3v3h-3zm0 6h3v3h-3z" fill="#b8d432"/><path d="M41.492 14.737a11.05 11.05 0 0 0 .581-3.522C42.073 5.02 36.98 0 30.697 0c-4.75 0-8.808 2.876-10.51 6.954-1.5-1.595-3.66-2.563-6.047-2.563C9.572 4.39 5.9 8 5.9 12.514c0 .8.12 1.604.337 2.335C2.678 16.18.1 19.563.1 23.562c0 5.15 4.205 9.338 9.4 9.338h29c5.208 0 9.402-4.182 9.402-9.338.01-4.11-2.674-7.6-6.41-8.825z" fill="#59b4d9"/><path d="M3.325 28.792c0-4.066 2.703-7.507 6.436-8.86-.23-.743-.353-1.56-.353-2.374 0-4.58 3.85-8.26 8.64-8.26 2.503 0 4.758.984 6.34 2.606 1.785-4.146 6.04-7.07 11.022-7.07 1.996 0 3.876.47 5.53 1.3C39.095 2.504 35.202 0 30.697 0c-4.75 0-8.808 2.79-10.51 6.742-1.5-1.547-3.66-2.485-6.047-2.485-4.567 0-8.238 3.51-8.238 7.876 0 .776.12 1.555.337 2.264-3.56 1.3-6.138 4.57-6.138 8.45 0 2.74 1.27 5.2 3.27 6.86a9.22 9.22 0 0 1-.046-.915z" opacity=".2" fill="#fff"/><path d="M40.433 24.996a3.71 3.71 0 0 0-3.473-2.37c-.465 0-.922.086-1.357.257-.12.047-.224.115-.337.173l-3.688-3.548A5.46 5.46 0 0 0 32 17.4a5.51 5.51 0 0 0-5.5-5.5 5.48 5.48 0 0 0-3.787 1.521l-2.002-1.247c.05-.564-.016-1.135-.23-1.677-.563-1.44-1.926-2.37-3.472-2.37-.465 0-.922.086-1.357.257-1.914.75-2.86 2.916-2.113 4.83.563 1.44 1.927 2.37 3.472 2.37.466 0 .923-.086 1.358-.257.298-.117.566-.28.818-.46l1.975 1.23A5.45 5.45 0 0 0 21 17.4a5.47 5.47 0 0 0 .276 1.71l-3.855 2.424a3.17 3.17 0 0 0-1.601-.438 3.16 3.16 0 0 0-1.159.22 3.19 3.19 0 0 0-1.804 4.123c.48 1.23 1.645 2.022 2.963 2.022.397 0 .788-.074 1.16-.22 1.28-.5 2.04-1.744 2.01-3.044l4.038-2.54a5.48 5.48 0 0 0 1.695.939L22.116 38.14C20.314 38.73 19 40.405 19 42.4c0 2.48 2.02 4.5 4.5 4.5s4.5-2.02 4.5-4.5c0-1.913-1.205-3.54-2.892-4.2l2.596-15.447a5.48 5.48 0 0 0 1.926-.846l3.712 3.572c-.172.716-.14 1.488.148 2.224a3.71 3.71 0 0 0 3.472 2.37c.465 0 .922-.086 1.357-.257 1.914-.75 2.862-2.916 2.114-4.83z" opacity=".2" fill="#00188f"/><path d="M39.5 25.36a2.73 2.73 0 0 0-3.534-1.546 2.71 2.71 0 0 0-.825.518l-4.796-4.628c.406-.676.654-1.458.654-2.304a4.5 4.5 0 0 0-4.5-4.5c-1.476 0-2.775.72-3.595 1.82l-3.3-2.055a2.7 2.7 0 0 0-.052-1.802 2.73 2.73 0 0 0-3.534-1.546 2.73 2.73 0 0 0-1.546 3.534 2.73 2.73 0 0 0 3.534 1.546 2.71 2.71 0 0 0 1.072-.777l3.274 2.04A4.45 4.45 0 0 0 22 17.4c0 .76.207 1.468.54 2.096l-5.17 3.25a2.18 2.18 0 0 0-3.584 2.328 2.18 2.18 0 0 0 2.827 1.237c1.053-.412 1.594-1.55 1.296-2.616l5.252-3.302c.688.767 1.63 1.29 2.698 1.443L23.297 38.92C21.46 39.028 20 40.537 20 42.4a3.5 3.5 0 1 0 7 0c0-1.662-1.16-3.046-2.714-3.404l2.57-17.132c1.1-.088 2.096-.55 2.83-1.288L34.5 25.21c-.3.65-.35 1.416-.068 2.137a2.73 2.73 0 0 0 3.534 1.546c1.403-.55 2.094-2.13 1.545-3.534z" fill="#fff"/></svg>

<?xml version="1.0" encoding="UTF-8" standalone="no"?>
<svg
   xmlns:dc="http://purl.org/dc/elements/1.1/"
   xmlns:cc="http://creativecommons.org/ns#"
   xmlns:rdf="http://www.w3.org/1999/02/22-rdf-syntax-ns#"
   xmlns:svg="http://www.w3.org/2000/svg"
   xmlns="http://www.w3.org/2000/svg"
   xmlns:sodipodi="http://sodipodi.sourceforge.net/DTD/sodipodi-0.dtd"
   xmlns:inkscape="http://www.inkscape.org/namespaces/inkscape"
   version="1.1"
   id="Layer_1"
   x="0px"
   y="0px"
   width="48"
   height="49.900002"
   viewBox="0 0 48 49.900002"
   enable-background="new 0 0 50 50"
   xml:space="preserve"
   inkscape:version="0.91 r13725"
   sodipodi:docname="IOT_edge_50.svg"><metadata
     id="metadata21"><rdf:RDF><cc:Work
         rdf:about=""><dc:format>image/svg+xml</dc:format><dc:type
           rdf:resource="http://purl.org/dc/dcmitype/StillImage" /><dc:title></dc:title></cc:Work></rdf:RDF></metadata><defs
     id="defs19" /><sodipodi:namedview
     pagecolor="#ffffff"
     bordercolor="#666666"
     borderopacity="1"
     objecttolerance="10"
     gridtolerance="10"
     guidetolerance="10"
     inkscape:pageopacity="0"
     inkscape:pageshadow="2"
     inkscape:window-width="1920"
     inkscape:window-height="1018"
     id="namedview17"
     showgrid="false"
     fit-margin-top="0"
     fit-margin-left="0"
     fit-margin-right="0"
     fit-margin-bottom="0"
     inkscape:zoom="10.363697"
     inkscape:cx="21.968041"
     inkscape:cy="23.519012"
     inkscape:window-x="-8"
     inkscape:window-y="-8"
     inkscape:window-maximized="1"
     inkscape:current-layer="Layer_1" /><path
     d="M 46.677,34.9 1.323,34.9 C 0.592,34.9 0,35.492 0,36.223 L 0,48.577 C 0,49.308 0.592,49.9 1.323,49.9 L 46.677,49.9 C 47.408,49.9 48,49.308 48,48.577 L 48,36.223 C 48,35.495 47.405,34.9 46.677,34.9 Z"
     id="path3"
     inkscape:connector-curvature="0"
     style="fill:#7a7a7a" /><rect
     x="41"
     y="37.900002"
     width="3"
     height="3"
     id="rect5"
     style="fill:#b8d432" /><rect
     x="41"
     y="43.900002"
     width="3"
     height="3"
     id="rect7"
     style="fill:#b8d432" /><path
     d="M 41.492,14.737 C 41.864,13.628 42.073,12.446 42.073,11.215 42.073,5.021 36.98,0 30.697,0 25.947,0 21.889,2.876 20.186,6.954 18.676,5.359 16.527,4.391 14.139,4.391 9.572,4.391 5.901,8.01 5.901,12.514 5.901,13.314 6.02,14.118 6.238,14.849 2.678,16.179 0.1,19.563 0.1,23.562 0.1,28.712 4.305,32.9 9.499,32.9 L 38.499,32.9 C 43.707,32.9 47.901,28.718 47.901,23.562 47.912,19.451 45.227,15.972 41.492,14.737 Z"
     id="path9"
     inkscape:connector-curvature="0"
     style="fill:#59b4d9" /><path
     enable-background="new    "
     d="M 3.325,28.792 C 3.325,24.726 6.028,21.285 9.761,19.933 9.532,19.19 9.408,18.373 9.408,17.559 9.408,12.98 13.257,9.3 18.047,9.3 20.55,9.3 22.805,10.284 24.388,11.906 26.173,7.76 30.428,4.836 35.41,4.836 37.406,4.836 39.286,5.307 40.939,6.135 39.095,2.504 35.202,0 30.697,0 25.947,0 21.889,2.789 20.186,6.742 18.676,5.195 16.527,4.257 14.139,4.257 9.572,4.257 5.901,7.766 5.901,12.133 5.901,12.909 6.02,13.688 6.238,14.397 2.677,15.687 0.1,18.968 0.1,22.846 0.1,25.587 1.369,28.045 3.371,29.707 3.341,29.406 3.325,29.101 3.325,28.792 Z"
     id="path11"
     inkscape:connector-curvature="0"
     style="opacity:0.2;fill:#ffffff" /><path
     enable-background="new    "
     d="M 40.433,24.996 C 39.87,23.557 38.506,22.626 36.96,22.626 36.495,22.626 36.038,22.712 35.603,22.883 35.483,22.93 35.379,22.998 35.266,23.056 L 31.578,19.508 C 31.849,18.858 32,18.147 32,17.4 32,14.367 29.532,11.9 26.5,11.9 25.033,11.9 23.701,12.481 22.713,13.421 L 20.711,12.174 C 20.76,11.61 20.695,11.039 20.482,10.497 19.919,9.058 18.556,8.127 17.01,8.127 16.545,8.127 16.088,8.213 15.653,8.384 13.739,9.133 12.792,11.3 13.54,13.213 14.103,14.652 15.467,15.583 17.012,15.583 17.013,15.583 17.013,15.583 17.013,15.583 17.478,15.583 17.935,15.497 18.37,15.326 18.668,15.209 18.936,15.047 19.188,14.865 L 21.163,16.095 C 21.06,16.514 21,16.949 21,17.4 21,17.997 21.099,18.571 21.276,19.11 L 17.421,21.534 C 16.946,21.257 16.4,21.096 15.82,21.096 15.423,21.096 15.033,21.17 14.661,21.316 13.027,21.956 12.219,23.805 12.857,25.439 13.338,26.668 14.502,27.461 15.82,27.461 15.82,27.461 15.82,27.461 15.821,27.461 16.217,27.461 16.608,27.387 16.98,27.241 18.259,26.74 19.02,25.497 18.989,24.197 L 23.027,21.658 C 23.526,22.066 24.1,22.384 24.722,22.597 L 22.116,38.139 C 20.314,38.729 19,40.405 19,42.4 19,44.881 21.019,46.9 23.5,46.9 25.981,46.9 28,44.881 28,42.4 28,40.487 26.795,38.86 25.108,38.21 L 27.704,22.763 C 28.406,22.605 29.057,22.315 29.63,21.917 L 33.342,25.489 C 33.17,26.205 33.202,26.977 33.49,27.713 34.053,29.152 35.417,30.082 36.962,30.083 37.427,30.083 37.884,29.997 38.319,29.826 40.233,29.076 41.181,26.91 40.433,24.996 Z"
     id="path13"
     inkscape:connector-curvature="0"
     style="opacity:0.2;fill:#00188f" /><path
     d="M 39.501,25.36 C 38.952,23.957 37.37,23.265 35.967,23.814 35.652,23.937 35.379,24.119 35.142,24.332 L 30.346,19.704 C 30.752,19.028 31,18.246 31,17.4 31,14.915 28.985,12.9 26.5,12.9 25.024,12.9 23.725,13.621 22.905,14.719 L 19.604,12.664 C 19.783,12.093 19.787,11.463 19.552,10.862 19.003,9.459 17.421,8.767 16.018,9.316 14.615,9.865 13.923,11.447 14.472,12.85 15.021,14.253 16.603,14.945 18.006,14.396 18.44,14.226 18.795,13.95 19.078,13.619 L 22.352,15.658 C 22.125,16.193 22,16.782 22,17.4 22,18.161 22.207,18.868 22.541,19.496 L 17.372,22.746 C 16.778,22.145 15.862,21.919 15.025,22.247 13.902,22.686 13.349,23.951 13.788,25.074 14.227,26.197 15.492,26.75 16.615,26.311 17.668,25.899 18.209,24.761 17.911,23.695 L 23.163,20.393 C 23.851,21.16 24.792,21.682 25.861,21.836 L 23.297,38.92 C 21.46,39.028 20,40.537 20,42.4 20,44.333 21.567,45.9 23.5,45.9 25.433,45.9 27,44.333 27,42.4 27,40.738 25.839,39.354 24.286,38.996 L 26.856,21.864 C 27.957,21.776 28.952,21.314 29.687,20.576 L 34.49,25.211 C 34.189,25.862 34.14,26.627 34.422,27.348 34.971,28.751 36.553,29.443 37.956,28.894 39.359,28.345 40.05,26.763 39.501,25.36 Z"
     id="path15"
     inkscape:connector-curvature="0"
     style="fill:#ffffff" /></svg>
